X: 24671
T: Mackilmoyle's
R: reel
M: 4/4
K: Dmajor
DF Ad fd fd|cd ec df dA|FA FA GB GB|FA FA EA EA|
DF Ad fd fd|cd ec df dA|FA FA GB GB|Ac ec d4:|
|:Ac ef ge ce|de fg aa fd|Ac ef gf gb|af ge fa fd|
Ac ef ge ce|de fg af ge|fd ec dB AG|FA Bc d4:|

